images_sukapura_svg/cmd/32/deletetable.svg

<svg viewBox="0 0 32 32" xmlns="http://www.w3.org/2000/svg" xmlns:xlink="http://www.w3.org/1999/xlink"><linearGradient id="a" gradientUnits="userSpaceOnUse" x1="15" x2="15" y1="4" y2="28"><stop offset="0" stop-color="#efefef"/><stop offset=".33333334" stop-color="#fff"/><stop offset=".8888889" stop-color="#fff"/><stop offset="1" stop-color="#f5f5f5"/></linearGradient><filter id="b" color-interpolation-filters="sRGB" height="1.116265" width="1.123983" x="-.061992" y="-.058132"><feGaussianBlur stdDeviation=".61991525"/></filter><path d="m4 4h24v25.59322h-24z" filter="url(#b)" opacity=".15" stroke-width="1.032659"/><path d="m4 3c-.554 0-1 .446-1 1v24c0 .554.446 1 1 1h24c.554 0 1-.446 1-1v-24c0-.554-.446-1-1-1zm0 1h24v9 1 4 1 4 1 4h-6-1-5-1-5-1-5v-4-1-4-1-4-1z" fill="#69696e"/><path d="m4 4h24v24h-24z" fill="url(#a)"/><path d="m3 3h26v6h-26z" fill="#0a84ff"/><path d="m9 9v4h-5v1h5v4h-5v1h5v4h-5v1h5v4h1v-4h5v4h1v-4h5v4h1v-4h6v-1h-6v-4h6v-1h-6v-4h6v-1h-6v-4h-1v4h-5v-4h-1v4h-5v-4zm1 5h5v4h-5zm6 0h5v4h-5zm-6 5h5v4h-5zm6 0h5v4h-5z" fill="#bababa"/><path d="m4 3c-.554 0-1 .446-1 1v5h1 5 1 5 1 5 1 6 1v-5c0-.554-.446-1-1-1zm0 1h5v4h-5zm6 0h5v4h-5zm6 0h5v4h-5zm6 0h6v4h-6z" fill="#0040dd"/><path d="m19.009766 16a1.0041282 1.0041282 0 0 0 -.611328.271484l-2.089844 1.982422a1.0041282 1.0041282 0 0 0 -.308594.650391v.166015a1.0041282 1.0041282 0 0 0 .285156.617188l4.228516 4.294922-4.226563 4.251953a1.0041282 1.0041282 0 0 0 -.287109.625v.152344a1.0041282 1.0041282 0 0 0 .294922.644531l.349609.34375h4.808594l2.558594-2.644531 2.560547 2.644531h2.427734v-4.503906l-1.5-1.515625 1.5-1.59375v-6.382813a1.0041282 1.0041282 0 0 0 -.039062-.003906h-.15625a1.0041282 1.0041282 0 0 0 -.636719.294922l-4.15625 4.220703-4.210938-4.224609a1.0041282 1.0041282 0 0 0 -.623047-.291016z" fill="#fff" fill-opacity=".784314"/><path d="m31 28.944338-4.895447-4.946153 4.7861-5.086414-2.008392-1.911762-4.867282 4.941173-4.925406-4.941173-2.089573 1.98208 4.925403 5.003525-4.925403 4.955562 2.089573 2.058824 4.922011-5.088233 4.928799 5.088233z" fill="#c20618"/></svg>

<?xml version="1.0" encoding="UTF-8" standalone="no"?>
<svg
   xmlns:dc="http://purl.org/dc/elements/1.1/"
   xmlns:cc="http://creativecommons.org/ns#"
   xmlns:rdf="http://www.w3.org/1999/02/22-rdf-syntax-ns#"
   xmlns:svg="http://www.w3.org/2000/svg"
   xmlns="http://www.w3.org/2000/svg"
   xmlns:sodipodi="http://sodipodi.sourceforge.net/DTD/sodipodi-0.dtd"
   xmlns:inkscape="http://www.inkscape.org/namespaces/inkscape"
   viewBox="0 0 32 32"
   version="1.1"
   id="svg977"
   sodipodi:docname="deletetable.svg"
   inkscape:version="0.92.3 (unknown)">
  <metadata
     id="metadata983">
    <rdf:RDF>
      <cc:Work
         rdf:about="">
        <dc:format>image/svg+xml</dc:format>
        <dc:type
           rdf:resource="http://purl.org/dc/dcmitype/StillImage" />
        <dc:title></dc:title>
      </cc:Work>
    </rdf:RDF>
  </metadata>
  <defs
     id="defs981" />
  <sodipodi:namedview
     pagecolor="#ffffff"
     bordercolor="#666666"
     borderopacity="1"
     objecttolerance="10"
     gridtolerance="10"
     guidetolerance="10"
     inkscape:pageopacity="0"
     inkscape:pageshadow="2"
     inkscape:window-width="1366"
     inkscape:window-height="699"
     id="namedview979"
     showgrid="true"
     inkscape:zoom="7.375"
     inkscape:cx="7.4244656"
     inkscape:cy="9.2442132"
     inkscape:window-x="0"
     inkscape:window-y="0"
     inkscape:window-maximized="1"
     inkscape:current-layer="svg977">
    <inkscape:grid
       type="xygrid"
       id="grid1534" />
  </sodipodi:namedview>
  <linearGradient
     id="a"
     gradientUnits="userSpaceOnUse"
     x1="15"
     x2="15"
     y1="4"
     y2="28">
    <stop
       offset="0"
       stop-color="#efefef"
       id="stop953" />
    <stop
       offset=".33333334"
       stop-color="#fff"
       id="stop955" />
    <stop
       offset=".8888889"
       stop-color="#fff"
       id="stop957" />
    <stop
       offset="1"
       stop-color="#f5f5f5"
       id="stop959" />
  </linearGradient>
  <filter
     id="b"
     color-interpolation-filters="sRGB"
     height="1.116265"
     width="1.123983"
     x="-.061992"
     y="-.058132">
    <feGaussianBlur
       stdDeviation=".61991525"
       id="feGaussianBlur962" />
  </filter>
  <path
     d="m4 4h24v25.59322h-24z"
     filter="url(#b)"
     opacity=".15"
     stroke-width="1.032659"
     id="path965" />
  <path
     d="m4 3c-.554 0-1 .446-1 1v24c0 .554.446 1 1 1h24c.554 0 1-.446 1-1v-24c0-.554-.446-1-1-1zm0 1h24v9 1 4 1 4 1 4h-6-1-5-1-5-1-5v-4-1-4-1-4-1z"
     fill="#69696e"
     id="path967" />
  <path
     d="m4 4h24v24h-24z"
     fill="url(#a)"
     id="path969" />
  <path
     d="m3 3h26v6h-26z"
     fill="#0a84ff"
     id="path971" />
  <path
     d="m9 9v4h-5v1h5v4h-5v1h5v4h-5v1h5v4h1v-4h5v4h1v-4h5v4h1v-4h6v-1h-6v-4h6v-1h-6v-4h6v-1h-6v-4h-1v4h-5v-4h-1v4h-5v-4zm1 5h5v4h-5zm6 0h5v4h-5zm-6 5h5v4h-5zm6 0h5v4h-5z"
     fill="#bababa"
     id="path973" />
  <path
     d="m4 3c-.554 0-1 .446-1 1v5h1 5 1 5 1 5 1 6 1v-5c0-.554-.446-1-1-1zm0 1h5v4h-5zm6 0h5v4h-5zm6 0h5v4h-5zm6 0h6v4h-6z"
     fill="#0040dd"
     id="path975" />
  <path
     style="fill:#ffffff;fill-opacity:0.78431374"
     d="M 19.009766 16 A 1.0041282 1.0041282 0 0 0 18.398438 16.271484 L 16.308594 18.253906 A 1.0041282 1.0041282 0 0 0 16 18.904297 L 16 19.070312 A 1.0041282 1.0041282 0 0 0 16.285156 19.6875 L 20.513672 23.982422 L 16.287109 28.234375 A 1.0041282 1.0041282 0 0 0 16 28.859375 L 16 29.011719 A 1.0041282 1.0041282 0 0 0 16.294922 29.65625 L 16.644531 30 L 21.453125 30 L 24.011719 27.355469 L 26.572266 30 L 29 30 L 29 25.496094 L 27.5 23.980469 L 29 22.386719 L 29 16.003906 A 1.0041282 1.0041282 0 0 0 28.960938 16 L 28.804688 16 A 1.0041282 1.0041282 0 0 0 28.167969 16.294922 L 24.011719 20.515625 L 19.800781 16.291016 A 1.0041282 1.0041282 0 0 0 19.177734 16 L 19.009766 16 z "
     id="path1536" />
  <path
     inkscape:connector-curvature="0"
     style="fill:#c20618;fill-opacity:1"
     d="m 31,28.944338 -4.895447,-4.946153 4.7861,-5.086414 -2.008392,-1.911762 -4.867282,4.941173 L 19.089573,17.000009 17,18.982089 21.925403,23.985614 17,28.941176 19.089573,31 24.011584,25.911767 28.940383,31 Z"
     id="path6" />
</svg>
